X:1
T:Title
%%score { 1 | 2 }
L:1/8
Q:1/4=100
M:4/4
K:G
V:1 treble nm="Grand Piano"
V:2 treble 
V:1
 B>B B>B c2 B2 | [GB]>[FA] [FA]>[=F^G] [^FA]4 | [Ac]>[Ac] [Ac]>[Ac] [Bd]2 [Ac]2 | [GB]>A G>A B4 | %4
w: H.~L.~Gilmour * * * * *||||
 d>d B>A G2 [DF]2 | [CE]>[CE] [EA]>[EB] [Ec]4 | c>c B>A [Dd]2 [GB]2 | [DB]2 [CDA]2 [B,DG]4 | %8
w: ||||
 d2 B>d G2 G2 | [DB]>[DA] [DG]>[CE] [B,D]4 | [CE]>[DF] [EG]>E D>G F>G | [Ac]2 [GB]2 [FA]4 | %12
w: ||||
 B>B B>B d2 d2 | [Ec]>[Ec] [Ec]>[Ec] [Ge]4 | d>d d>e d2 [EAc]2 | [DGB]2 [CDA]2 [G,B,DG]4 |] %16
w: ||||
V:2
 [G,DG]>[G,DG] [G,DG]>[G,DG] [G,EG]2 [G,DG]2 | [D,D]>[D,D] [D,D]>[D,D] [D,D]4 | %2
 [D,D]>[D,D] [D,D]>[D,D] [D,D]2 [D,D]2 | [D,D]>[D,CD] [D,B,D]>[D,F,D][K:treble] [G,D]4 | %4
 [G,B,G]>[G,B,G] [G,DG]>[G,CD][K:bass] [G,B,D]2 [B,,G,]2 | [C,G,]>[C,G,] [C,E,]>[B,,^G,] [A,,A,]4 | %6
 [D,A,D]>[D,A,D] [D,G,D]>[D,F,D] [B,,G,]2 [E,G,B,]2 | [D,G,]2 D,2 G,,4 | %8
 [G,B,G]2 [G,DG]>[G,B,G] [G,B,D]2 [G,B,D]2 | [G,,G,]>[A,,F,] [B,,G,]>[C,G,] [G,,G,]4 | %10
 [C,G,]>[C,G,] [C,G,]>[C,G,C] [G,B,]>[G,B,D] [A,CD]>[G,B,D] | [F,D]2 [G,D]2 [D,D]4 | %12
 [G,DG]>[G,DG] [G,DG]>[G,DG] [G,B,G]2 [G,B,=F]2 | [C,C]>[C,G,] [C,G,]>[C,G,] [C,C]4 | %14
 [G,B,G]>[G,B,G] [G,B,G]>[G,CG] [G,B,G]2[K:bass] C,2 | D,2 D,2 G,,4 |] %16

